X: 22597
T: Lady On The Boat, The
R: jig
M: 6/8
K: Gmajor
D|:GBD G2D|GBD G2B|d2B GAB|ABA A2D|
GBD G2D|GBD G2B|d2B AGA|1 BGG G2D:|2 BGG G2A||
BAB cBc|~d3 B2d|dcB BAG|BAA AGA|BAB cBc|~d3 B2d|
dcB AGA|BGG G2A|BAB cBc|~d3 B2d|dcB BAG|
BAA A2D|GBD G2D|GBD G2B|d2B AGA|BGG G3||

